assets/img/icons/ui/organization.svg

<?xml version="1.0" encoding="utf-8"?>
<!-- Generated by IcoMoon.io -->
<!DOCTYPE svg PUBLIC "-//W3C//DTD SVG 1.1//EN" "http://www.w3.org/Graphics/SVG/1.1/DTD/svg11.dtd">
<svg version="1.1" xmlns="http://www.w3.org/2000/svg" xmlns:xlink="http://www.w3.org/1999/xlink" width="32" height="32" viewBox="0 0 32 32">
<path fill="rgb(0, 0, 0)" d="M30 28v-24h-12v-2h-12v2h-4v24h-2v2h14v-6h4v6h14v-2h-2zM10 20h-4v-4h4v4zM10 12h-4v-4h4v4zM18 20h-4v-4h4v4zM18 12h-4v-4h4v4zM26 20h-4v-4h4v4zM26 12h-4v-4h4v4z"></path>
</svg>

<svg xmlns="http://www.w3.org/2000/svg" width="32" height="32" viewBox="0 0 32 32"><path d="M30 28V4H18V2H6v2H2v24H0v2h14v-6h4v6h14v-2h-2zm-20-8H6v-4h4v4zm0-8H6V8h4v4zm8 8h-4v-4h4v4zm0-8h-4V8h4v4zm8 8h-4v-4h4v4zm0-8h-4V8h4v4z"/></svg>
